presets/Golden_Hour_Matte.xmp
<x:xmpmeta xmlns:x="adobe:ns:meta/" x:xmptk="Adobe XMP Core 7.0-c000 1.000000, 0000/00/00-00:00:00        ">
 <rdf:RDF xmlns:rdf="http://www.w3.org/1999/02/22-rdf-syntax-ns#">
  <rdf:Description rdf:about=""
    xmlns:crs="http://ns.adobe.com/camera-raw-settings/1.0/"
   crs:PresetType="Normal"
   crs:Cluster=""
   crs:UUID="085DB6A1310E4EBDBE6B8CE53C6EE173"
   crs:SupportsAmount="False"
   crs:SupportsColor="True"
   crs:SupportsMonochrome="True"
   crs:SupportsHighDynamicRange="True"
   crs:SupportsNormalDynamicRange="True"
   crs:SupportsSceneReferred="True"
   crs:SupportsOutputReferred="True"
   crs:CameraModelRestriction=""
   crs:Copyright=""
   crs:ContactInfo=""
   crs:Version="15.4"
   crs:ProcessVersion="11.0"
   crs:WhiteBalance="As Shot"
   crs:IncrementalTemperature="+12"
   crs:IncrementalTint="+5"
   crs:Exposure2012="-0.05"
   crs:Contrast2012="+5"
   crs:Highlights2012="-25"
   crs:Shadows2012="+20"
   crs:Whites2012="+2"
   crs:Blacks2012="+2"
   crs:Texture="+6"
   crs:Clarity2012="+3"
   crs:Dehaze="+2"
   crs:Vibrance="+25"
   crs:Saturation="+5"
   crs:ParametricShadows="+8"
   crs:ParametricDarks="+3"
   crs:ParametricLights="+3"
   crs:ParametricHighlights="-8"
   crs:ParametricShadowSplit="25"
   crs:ParametricMidtoneSplit="50"
   crs:ParametricHighlightSplit="75"
   crs:Sharpness="40"
   crs:SharpenRadius="+1.0"
   crs:SharpenDetail="25"
   crs:SharpenEdgeMasking="0"
   crs:LuminanceSmoothing="0"
   crs:ColorNoiseReduction="25"
   crs:ColorNoiseReductionDetail="50"
   crs:ColorNoiseReductionSmoothness="50"
   crs:HueAdjustmentRed="-5"
   crs:HueAdjustmentOrange="-3"
   crs:HueAdjustmentYellow="-10"
   crs:HueAdjustmentGreen="-8"
   crs:HueAdjustmentAqua="-5"
   crs:HueAdjustmentBlue="-10"
   crs:HueAdjustmentPurple="0"
   crs:HueAdjustmentMagenta="-5"
   crs:SaturationAdjustmentRed="+15"
   crs:SaturationAdjustmentOrange="+25"
   crs:SaturationAdjustmentYellow="+20"
   crs:SaturationAdjustmentGreen="-15"
   crs:SaturationAdjustmentAqua="0"
   crs:SaturationAdjustmentBlue="+20"
   crs:SaturationAdjustmentPurple="-5"
   crs:SaturationAdjustmentMagenta="0"
   crs:LuminanceAdjustmentRed="+3"
   crs:LuminanceAdjustmentOrange="+8"
   crs:LuminanceAdjustmentYellow="-3"
   crs:LuminanceAdjustmentGreen="-10"
   crs:LuminanceAdjustmentAqua="0"
   crs:LuminanceAdjustmentBlue="-5"
   crs:LuminanceAdjustmentPurple="0"
   crs:LuminanceAdjustmentMagenta="0"
   crs:SplitToningShadowHue="0"
   crs:SplitToningShadowSaturation="0"
   crs:SplitToningHighlightHue="0"
   crs:SplitToningHighlightSaturation="0"
   crs:SplitToningBalance="0"
   crs:ColorGradeShadowHue="35"
   crs:ColorGradeShadowSat="6"
   crs:ColorGradeShadowLum="0"
   crs:ColorGradeMidtoneHue="40"
   crs:ColorGradeMidtoneSat="4"
   crs:ColorGradeMidtoneLum="0"
   crs:ColorGradeHighlightHue="45"
   crs:ColorGradeHighlightSat="10"
   crs:ColorGradeHighlightLum="0"
   crs:ColorGradeBlending="50"
   crs:ColorGradeBalance="15"
   crs:ColorGradeGlobalHue="40"
   crs:ColorGradeGlobalSat="0"
   crs:ColorGradeGlobalLum="0"
   crs:AutoLateralCA="0"
   crs:LensProfileEnable="0"
   crs:LensManualDistortionAmount="0"
   crs:VignetteAmount="-10"
   crs:VignetteMidpoint="50"
   crs:DefringePurpleAmount="0"
   crs:DefringePurpleHueLo="30"
   crs:DefringePurpleHueHi="70"
   crs:DefringeGreenAmount="0"
   crs:DefringeGreenHueLo="40"
   crs:DefringeGreenHueHi="60"
   crs:PerspectiveUpright="0"
   crs:PerspectiveVertical="0"
   crs:PerspectiveHorizontal="0"
   crs:PerspectiveRotate="0.0"
   crs:PerspectiveAspect="0"
   crs:PerspectiveScale="100"
   crs:PerspectiveX="0.00"
   crs:PerspectiveY="0.00"
   crs:GrainAmount="8"
   crs:GrainSize="25"
   crs:GrainFrequency="50"
   crs:PostCropVignetteAmount="0"
   crs:ShadowTint="0"
   crs:RedHue="+5"
   crs:RedSaturation="+15"
   crs:GreenHue="-3"
   crs:GreenSaturation="-5"
   crs:BlueHue="-5"
   crs:BlueSaturation="+20"
   crs:OverrideLookVignette="False"
   crs:ToneCurveName2012="Linear"
   crs:CameraProfile="Adobe Color"
   crs:HasSettings="True">
   <crs:Name>
    <rdf:Alt>
     <rdf:li xml:lang="x-default">Golden Hour Matte</rdf:li>
    </rdf:Alt>
   </crs:Name>
   <crs:ShortName>
    <rdf:Alt>
     <rdf:li xml:lang="x-default">Golden Hour Matte</rdf:li>
    </rdf:Alt>
   </crs:ShortName>
   <crs:SortName>
    <rdf:Alt>
     <rdf:li xml:lang="x-default">Golden Hour Matte</rdf:li>
    </rdf:Alt>
   </crs:SortName>
   <crs:Group>
    <rdf:Alt>
     <rdf:li xml:lang="x-default">User Presets</rdf:li>
    </rdf:Alt>
   </crs:Group>
   <crs:Description>
    <rdf:Alt>
     <rdf:li xml:lang="x-default">Vibrant golden-hour look with punchy contrast, glowing reds/oranges/yellows, deep saturated blues, and slightly muted olive-shifted greens. Modeled after a sunset Golden Gate Bridge reference.</rdf:li>
    </rdf:Alt>
   </crs:Description>
   <crs:ToneCurvePV2012>
    <rdf:Seq>
     <rdf:li>0, 6</rdf:li>
     <rdf:li>56, 56</rdf:li>
     <rdf:li>128, 128</rdf:li>
     <rdf:li>200, 202</rdf:li>
     <rdf:li>255, 247</rdf:li>
    </rdf:Seq>
   </crs:ToneCurvePV2012>
   <crs:ToneCurvePV2012Red>
    <rdf:Seq>
     <rdf:li>0, 3</rdf:li>
     <rdf:li>128, 134</rdf:li>
     <rdf:li>255, 255</rdf:li>
    </rdf:Seq>
   </crs:ToneCurvePV2012Red>
   <crs:ToneCurvePV2012Green>
    <rdf:Seq>
     <rdf:li>0, 2</rdf:li>
     <rdf:li>128, 128</rdf:li>
     <rdf:li>255, 252</rdf:li>
    </rdf:Seq>
   </crs:ToneCurvePV2012Green>
   <crs:ToneCurvePV2012Blue>
    <rdf:Seq>
     <rdf:li>0, 8</rdf:li>
     <rdf:li>128, 122</rdf:li>
     <rdf:li>255, 245</rdf:li>
    </rdf:Seq>
   </crs:ToneCurvePV2012Blue>
  </rdf:Description>
 </rdf:RDF>
</x:xmpmeta>
